X:191
T:Lord Berkley's Whim THO1.191
M:C|
L:1/8
Z:vmp. Peter Dunk 2012.from a transcription by Fynn Titford-Mock 2006
B:Thompson's Compleat Collection of 200 Favourite Country Dances Vol.I,1758
Q:1/2=70
K:A
C2 E<A c<ec<A|B2 d<c F<BG<E|A2 E=G F<DC<B,|C<E c<B A2A,2:|
|:c2 c<A c2 c<A|c<Ae<c A2c2|B2 B<F B2 B<F|G<AE<A C2A,2:|
|:c2 (e/d/c) (e/d/c) (e/d/c)|eagf e2c2|\
d2 f<d f<d f<d|B<fe<d c2A2:|
|:A2 E<C A2 E<C|D<BA<G A2E2|A2 E<C A2 E<C|D2E2 [A4E4A,4]:|

